X:1
T:McMahon's Reel
M:2/4
L:1/16
K:G
DE|"G" G>D EDEG |"D7" AGAB "G"d2Bd | "C"eged "G"BAGA | "Em"BAGE "D7"EDDE|!
"G" G>D EDEG |"D7" AGAB "G"d2Bd | "C"eged "G"BAGA | "Em"BAGE "D7"EDD2:|]!
"Am"eaag efge |"G"dBBA B3d | "Em"eBB2 eBgB | eBBA B3d|!
"Am"eaag efge |"G"dBBA B3d | "C"eged "G"BAGA | "Em"BAGE "D7 (last time: G)"EDD2:|]!
